;FLAVOR:Marlin
;TIME:167
;Filament used: 0.105122m
;Layer height: 0.2
;MINX:18.7
;MINY:18.7
;MINZ:0.2
;MAXX:216.3
;MAXY:216.3
;MAXZ:0.2
;Post-Processed by AutoTowersGenerator
;Generated with Cura_SteamEngine 5.2.1
M140 S50
M105
M190 S50
M104 S200
M105
M109 S200
M82 ;absolute extrusion mode
; Ender 3 Custom Start G-code
G92 E0 ; Reset Extruder
G28 ; Home all axes
G1 Z2.0 F3000 ; Move Z Axis up little to prevent scratching of Heat Bed
G1 X0.1 Y20 Z0.3 F5000.0 ; Move to start position
G1 X0.1 Y200.0 Z0.3 F1500.0 E15 ; Draw the first line
G1 X0.4 Y200.0 Z0.3 F5000.0 ; Move to side a little
G1 X0.4 Y20 Z0.3 F1500.0 E30 ; Draw the second line
G92 E0 ; Reset Extruder
G1 Z2.0 F3000 ; Move Z Axis up little to prevent scratching of Heat Bed
G1 X5 Y20 Z0.3 F5000.0 ; Move over to prevent blob squish
G92 E0
G92 E0
G1 F2700 E-5
;LAYER_COUNT:1
;LAYER:0
M107
;MESH:AutoTowersGenerator
G0 F6000 X103.591 Y131.409 Z0.2
;TYPE:WALL-OUTER
G1 F2700 E0
G1 F1106 X103.757 Y131.443 E0.00611
G1 F1197 X131.277 Y131.442 E0.92372
G1 F1103.4 X131.409 Y131.409 E0.92864
G1 X131.442 Y131.277 E0.93356
G1 F1197 X131.443 Y103.757 E1.85117
G1 F1106 X131.409 Y103.591 E1.85729
G1 X131.243 Y103.557 E1.8634
G1 F1197 X103.723 Y103.558 E2.78101
G1 F1103.4 X103.591 Y103.591 E2.78593
G1 F1106 X103.557 Y103.757 E2.79205
G1 F1197 X103.558 Y131.277 E3.70965
G1 F1103.4 X103.591 Y131.409 E3.71457
G1 F2700 E-1.28543
G0 F6000 X102.692 Y131.409
G0 X90.267 Y144.733
G0 X89.448 Y145.552
G1 F2700 E3.71457
G1 F1106 X89.614 Y145.586 E3.72069
G1 F1197 X145.42 Y145.585 E5.58144
G1 F1103.4 X145.552 Y145.552 E5.58637
G1 X145.585 Y145.42 E5.59129
G1 F1197 X145.586 Y89.614 E7.45204
G1 F1106 X145.552 Y89.448 E7.45816
G1 X145.386 Y89.414 E7.46427
G1 F1197 X89.58 Y89.415 E9.32503
G1 F1103.4 X89.448 Y89.448 E9.32995
G1 F1106 X89.414 Y89.614 E9.33606
G1 F1197 X89.415 Y145.42 E11.19682
G1 F1103.4 X89.448 Y145.552 E11.20174
G1 F2700 E6.20174
G0 F6000 X88.549 Y145.552
G0 X76.124 Y158.876
G0 X75.305 Y159.695
G1 F2700 E11.20174
G1 F1106 X75.471 Y159.729 E11.20786
G1 F1197 X159.563 Y159.728 E14.01176
G1 F1103.4 X159.695 Y159.695 E14.01668
G1 X159.728 Y159.563 E14.0216
G1 F1197 X159.729 Y75.471 E16.82551
G1 F1106 X159.695 Y75.305 E16.83162
G1 X159.529 Y75.271 E16.83774
G1 F1197 X75.437 Y75.272 E19.64164
G1 F1103.4 X75.305 Y75.305 E19.64656
G1 F1106 X75.271 Y75.471 E19.65267
G1 F1197 X75.272 Y159.563 E22.45658
G1 F1103.4 X75.305 Y159.695 E22.4615
G1 F2700 E17.4615
G0 F6000 X74.406 Y159.695
G0 X61.982 Y173.018
G0 X61.163 Y173.837
G1 F2700 E22.4615
G1 F1106 X61.329 Y173.871 E22.46761
G1 F1200 X117.517 Y173.871 E24.33644
G1 F1197 X173.705 Y173.87 E26.20993
G1 F1103.4 X173.837 Y173.837 E26.21485
G1 X173.87 Y173.705 E26.21977
G1 F1197 X173.87 Y117.517 E28.09326
G1 F1200 X173.871 Y61.329 E29.96208
G1 F1106 X173.837 Y61.163 E29.9682
G1 X173.671 Y61.129 E29.97431
G1 F1200 X117.483 Y61.129 E31.84313
G1 F1197 X61.295 Y61.13 E33.71663
G1 F1103.4 X61.163 Y61.163 E33.72155
G1 F1106 X61.129 Y61.329 E33.72766
G1 F1200 X61.129 Y117.517 E35.59648
G1 F1197 X61.13 Y173.705 E37.46998
G1 F1103.4 X61.163 Y173.837 E37.4749
G1 F2700 E32.4749
G0 F6000 X60.264 Y173.837
G0 X47.839 Y187.161
G0 X47.02 Y187.98
G1 F2700 E37.4749
G1 F1106 X47.186 Y188.014 E37.48101
G1 F1200 X117.517 Y188.014 E39.82023
G1 F1197 X187.848 Y188.013 E42.1653
G1 F1103.4 X187.98 Y187.98 E42.17022
G1 X188.013 Y187.848 E42.17514
G1 F1197 X188.013 Y117.517 E44.52021
G1 F1200 X188.014 Y47.186 E46.85943
G1 F1106 X187.98 Y47.02 E46.86554
G1 X187.814 Y46.986 E46.87165
G1 F1200 X117.483 Y46.986 E49.21087
G1 F1197 X47.152 Y46.987 E51.55594
G1 F1103.4 X47.02 Y47.02 E51.56086
G1 F1106 X46.986 Y47.186 E51.56698
G1 F1200 X46.986 Y117.517 E53.90619
G1 F1197 X46.987 Y187.848 E56.25126
G1 F1103.4 X47.02 Y187.98 E56.25618
G1 F2700 E51.25618
G0 F6000 X46.121 Y187.98
G0 X33.696 Y201.304
G0 X32.877 Y202.123
G1 F2700 E56.25618
G1 F1106 X33.043 Y202.157 E56.2623
G1 F1200 X117.517 Y202.157 E59.07191
G1 F1197 X201.991 Y202.156 E61.88855
G1 F1103.4 X202.123 Y202.123 E61.89348
G1 X202.156 Y201.991 E61.8984
G1 F1197 X202.156 Y117.517 E64.71504
G1 F1200 X202.157 Y33.043 E67.52466
G1 F1106 X202.123 Y32.877 E67.53077
G1 X201.957 Y32.843 E67.53688
G1 F1200 X117.483 Y32.843 E70.3465
G1 F1197 X33.009 Y32.844 E73.16314
G1 F1103.4 X32.877 Y32.877 E73.16806
G1 F1106 X32.843 Y33.043 E73.17418
G1 F1200 X32.843 Y117.517 E75.9838
G1 F1197 X32.844 Y201.991 E78.80044
G1 F1103.4 X32.877 Y202.123 E78.80536
G1 F2700 E73.80536
G0 F6000 X31.978 Y202.123
G0 X19.553 Y215.447
G0 X18.734 Y216.266
G1 F2700 E78.80536
G1 F1106 X18.9 Y216.3 E78.81147
G1 F1200 X117.517 Y216.3 E82.09149
G1 F1197 X216.134 Y216.299 E85.3797
G1 F1103.4 X216.266 Y216.266 E85.38462
G1 X216.299 Y216.134 E85.38954
G1 F1197 X216.299 Y117.517 E88.67776
G1 F1200 X216.3 Y18.9 E91.95777
G1 F1106 X216.266 Y18.734 E91.96389
G1 X216.1 Y18.7 E91.97
G1 F1200 X117.483 Y18.7 E95.25002
G1 F1197 X18.866 Y18.701 E98.53823
G1 F1103.4 X18.734 Y18.734 E98.54315
G1 F1106 X18.7 Y18.9 E98.54927
G1 F1200 X18.7 Y117.517 E101.82928
G1 F1197 X18.701 Y216.134 E105.1175
G1 F1103.4 X18.734 Y216.266 E105.12242
;TIME_ELAPSED:167.499359
G1 F2700 E100.12242
M140 S0
G91 ;Relative positioning
G1 E-2 F2700 ;Retract a bit
G1 E-2 Z0.2 F2400 ;Retract and raise Z
G1 X5 Y5 F3000 ;Wipe out
G1 Z10 ;Raise Z more
G90 ;Absolute positioning

G1 X0 Y235 ;Present print
M106 S0 ;Turn-off fan
M104 S0 ;Turn-off hotend
M140 S0 ;Turn-off bed

M84 X Y E ;Disable all steppers but Z

M82 ;absolute extrusion mode
M104 S0
;End of Gcode
;SETTING_3 {"global_quality": "[general]\\nversion = 4\\nname = Standard Quality
;SETTING_3  #2\\ndefinition = creality_ender3\\n\\n[metadata]\\ntype = quality_c
;SETTING_3 hanges\\nquality_type = standard\\nsetting_version = 20\\n\\n[values]
;SETTING_3 \\nadhesion_type = none\\n\\n", "extruder_quality": ["[general]\\nver
;SETTING_3 sion = 4\\nname = Standard Quality #2\\ndefinition = creality_base\\n
;SETTING_3 \\n[metadata]\\ntype = quality_changes\\nquality_type = standard\\nse
;SETTING_3 tting_version = 20\\nposition = 0\\n\\n[values]\\n\\n"]}
