; generated by PrusaSlicer 2.5.0+win64 on 2023-02-06 at 00:47:27 UTC


;
;

;
;
; 

; external perimeters extrusion width = 0.45mm
; perimeters extrusion width = 0.45mm
; infill extrusion width = 0.45mm
; solid infill extrusion width = 0.45mm
; top infill extrusion width = 0.40mm
; first layer extrusion width = 0.56mm

M201 X2000 Y2000 Z100 E2000 ; sets maximum accelerations, mm/sec^2
M203 X250 Y250 Z25 E70 ; sets maximum feedrates, mm / sec
M204 P2000 R2000 T2500 ; sets acceleration (P, T) and retract acceleration (R), mm/sec^2
M205 X10.00 Y10.00 Z0.30 E5.00 ; sets the jerk limits, mm/sec
M205 S0 T0 ; sets the minimum extruding and travel feed rate, mm/sec
M107
;TYPE:Custom
M140 S50 ; set bed temp
M104 S200 ; set extruder temp
M109 S200 ; wait for extruder temp
M190 S50 ; wait for bed temp

G28;
G1 Z4.0 F3000 ;Move Z Axis up
G92 E0 ;Reset Extruder
G1 X10.1 Y20 Z0.28 F5000.0 ;Move to start position
G1 X10.1 Y30.0 Z0.28 F1500.0 E1 ;Draw a short bit in case the extruder turns in the wrong direction
G1 X10.1 Y200.0 Z0.28 F1500.0 E15 ;Draw the first line
G1 X10.4 Y200.0 Z0.28 F5000.0 ;Move to side a little
G1 X10.4 Y20 Z0.28 F1500.0 E30 ;Draw the second line
G92 E0 ;Reset Extruder
G1 Z2.0 F3000 ;Move Z Axis up
G21 ; set units to millimeters
G90 ; use absolute coordinates
M82 ; use absolute distances for extrusion
G92 E0
; Filament gcode
M107
;LAYER_CHANGE
;Z:0.28
;HEIGHT:0.28
G1 Z.28 F720
;AFTER_LAYER_CHANGE
;0.28
M593 F0 ; Hz Input Shaping Test
G1 E-5 F2400
G92 E0
G1 X57.78 Y57.78 F10800
G1 E5 F2400
;TYPE:External perimeter
;WIDTH:0.56
G1 F900
G1 X90.334 Y57.78 E6.76184
G1 X90.334 Y57.912 E6.76897
G1 X87.2 Y62.387 E7.06463
G1 X87.177 Y62.427 E7.06712
G1 X87.162 Y62.59 E7.07601
G1 X87.283 Y62.748 E7.08677
G1 X87.405 Y62.78 E7.09359
G1 X93.972 Y62.78 E7.44902
G1 X94.015 Y62.776 E7.45137
G1 X94.177 Y62.673 E7.46176
G1 X94.222 Y62.519 E7.47042
G1 X94.177 Y62.387 E7.478
G1 X91.062 Y57.938 E7.77195
G1 X91.044 Y57.78 E7.78054
G1 X129.966 Y57.78 E9.88705
G1 X133.392 Y62.673 E10.21036
G1 X133.475 Y62.748 E10.21641
G1 X133.597 Y62.78 E10.22322
G1 X141.128 Y62.78 E10.63082
G1 X141.171 Y62.776 E10.63317
G1 X141.333 Y62.673 E10.64353
G1 X144.759 Y57.78 E10.96684
G1 X177.22 Y57.78 E12.72365
G1 X177.22 Y61.5 E12.92498
G1 X177.22 Y65.22 E13.12631
G1 X125.616 Y65.22 E15.91918
G1 X124.189 Y63.793 E16.02839
G1 X124.012 Y63.72 E16.03874
G1 X118.988 Y63.72 E16.3107
G1 X118.811 Y63.793 E16.32105
G1 X117.384 Y65.22 E16.43025
G1 X65.47 Y65.22 E19.23991
G1 X65.293 Y65.293 E19.25026
G1 X65.22 Y65.47 E19.26062
G1 X65.22 Y99.748 E21.1158
G1 X64.921 Y100.092 E21.14047
;WIDTH:0.569588
G1 X63.778 Y101.402 E21.23635
;WIDTH:0.613585
G1 X63.745 Y101.418 E21.23855
;WIDTH:0.657582
G1 X63.712 Y101.435 E21.24092
;WIDTH:0.701578
G1 X63.68 Y101.452 E21.24347
;WIDTH:0.745575
G1 X63.647 Y101.469 E21.24619
;WIDTH:0.789573
G1 X63.615 Y101.486 E21.24908
G1 X63.612 Y101.569 E21.25563
;WIDTH:0.776197
G1 X63.634 Y101.685 E21.26484
;WIDTH:0.732957
G1 X63.655 Y101.802 E21.27349
;WIDTH:0.689718
G1 X63.677 Y101.919 E21.28159
;WIDTH:0.646478
G1 X63.698 Y102.036 E21.28912
;WIDTH:0.603239
G1 X63.72 Y102.153 E21.29611
;WIDTH:0.56
G1 X63.72 Y107.348 E21.5773
G1 X63.781 Y107.512 E21.58677
G1 X65.22 Y109.169 E21.70552
G1 X65.22 Y133.831 E23.0403
G1 X63.781 Y135.488 E23.15905
G1 X63.72 Y135.652 E23.16852
G1 X63.72 Y140.133 E23.41106
;WIDTH:0.604008
G1 X63.698 Y140.312 E23.42167
;WIDTH:0.648018
G1 X63.676 Y140.491 E23.43314
;WIDTH:0.692026
G1 X63.654 Y140.67 E23.44547
;WIDTH:0.736036
G1 X63.632 Y140.849 E23.45866
;WIDTH:0.780044
G1 X63.61 Y141.028 E23.47271
;WIDTH:0.7855
G1 X63.613 Y141.494 E23.50933
G1 X63.646 Y141.514 E23.51242
;WIDTH:0.7404
G1 X63.68 Y141.534 E23.51531
;WIDTH:0.6953
G1 X63.714 Y141.555 E23.51802
;WIDTH:0.6502
G1 X63.748 Y141.575 E23.52053
;WIDTH:0.605099
G1 X63.781 Y141.595 E23.52285
;WIDTH:0.56
G1 X65.22 Y143.252 E23.6416
G1 X65.22 Y177.22 E25.48
G1 X57.78 Y177.22 E25.88266
G1 X57.78 Y144.666 E27.64451
G1 X57.912 Y144.666 E27.65164
G1 X62.387 Y147.8 E27.9473
G1 X62.427 Y147.823 E27.94978
G1 X62.59 Y147.838 E27.95867
G1 X62.748 Y147.717 E27.96943
G1 X62.78 Y147.595 E27.97626
G1 X62.78 Y141.969 E28.28072
;WIDTH:0.605099
G1 X62.803 Y141.887 E28.28577
;WIDTH:0.6502
G1 X62.825 Y141.804 E28.29124
;WIDTH:0.6953
G1 X62.848 Y141.722 E28.29712
;WIDTH:0.7404
G1 X62.87 Y141.639 E28.30342
;WIDTH:0.7855
G1 X62.893 Y141.557 E28.31014
G1 X62.89 Y141.028 E28.35169
;WIDTH:0.780044
G1 X62.84 Y140.983 E28.35691
;WIDTH:0.736036
G1 X62.79 Y140.938 E28.36181
;WIDTH:0.692026
G1 X62.741 Y140.893 E28.3664
;WIDTH:0.648018
G1 X62.691 Y140.848 E28.37067
;WIDTH:0.604008
G1 X62.641 Y140.804 E28.37461
;WIDTH:0.56
G1 X62.477 Y140.784 E28.38356
G1 X62.387 Y140.823 E28.38888
G1 X57.938 Y143.938 E28.68283
G1 X57.78 Y143.956 E28.69142
G1 X57.78 Y105.034 E30.79793
G1 X62.673 Y101.608 E31.12124
;WIDTH:0.605511
G1 X62.716 Y101.581 E31.1242
;WIDTH:0.651024
G1 X62.759 Y101.555 E31.1274
;WIDTH:0.696536
G1 X62.801 Y101.529 E31.13085
;WIDTH:0.742047
G1 X62.844 Y101.502 E31.13455
;WIDTH:0.78756
G1 X62.886 Y101.476 E31.1385
G1 X62.866 Y101.387 E31.14569
;WIDTH:0.743965
G1 X62.846 Y101.298 E31.15245
;WIDTH:0.700371
G1 X62.825 Y101.209 E31.15879
;WIDTH:0.656776
G1 X62.805 Y101.12 E31.16469
;WIDTH:0.613182
G1 X62.785 Y101.031 E31.17016
;WIDTH:0.569588
G1 X62.78 Y99.292 E31.26604
;WIDTH:0.56
G1 X62.78 Y93.872 E31.55941
G1 X62.748 Y93.75 E31.56623
G1 X62.673 Y93.667 E31.57227
G1 X57.78 Y90.241 E31.89558
G1 X57.78 Y57.84 E33.64914
G1 E28.64914 F2400
G92 E0
G1 X62.93 Y141.984 F10800
G1 E5 F2400
;TYPE:Solid infill
;WIDTH:0.5624
G1 F897.801
G1 X64.845 Y143.899 E5.14729
G1 F899.62
G1 X64.845 Y144.609 E5.18592
G1 X63.155 Y142.919 E5.3159
G1 X63.155 Y143.63 E5.35453
G1 X64.845 Y145.32 E5.48452
G1 X64.845 Y146.03 E5.52315
G1 X63.155 Y144.34 E5.65314
G1 X63.155 Y145.05 E5.69177
G1 X64.845 Y146.741 E5.82175
G1 X64.845 Y147.451 E5.86038
G1 X63.155 Y145.761 E5.99037
G1 X63.155 Y146.471 E6.029
G1 X64.845 Y148.161 E6.15898
G1 X64.845 Y148.872 E6.19761
G1 X63.155 Y147.181 E6.3276
G1 X63.155 Y147.6 E6.35038
G1 X63.146 Y147.708 E6.35626
G1 X63.1 Y147.837 E6.36368
G1 F898.186
G1 X64.845 Y149.582 E6.49791
G1 F899.742
G1 X64.845 Y150.292 E6.53654
G1 F896.782
G1 X62.733 Y148.18 E6.699
G1 X62.683 Y148.202 E6.70195
G1 F893.883
G1 X62.506 Y148.22 E6.71166
G1 F899.543
G1 X62.364 Y148.199 E6.71947
G1 X62.181 Y148.113 E6.73046
G1 X61.43 Y147.587 E6.78031
G1 X64.845 Y151.003 E7.04299
G1 X64.845 Y151.713 E7.08162
G1 X61.952 Y148.82 Z.28 E7.30408
G1 X59.06 Y145.928 Z.28 E7.52653
G1 X58.155 Y145.294 E7.58662
G1 X58.155 Y145.733 E7.61049
G1 X61.5 Y149.078 Z.28 E7.86775
G1 F900
G1 X64.845 Y152.424 Z.28 E8.12501
G1 F899.538
G1 X64.845 Y153.134 E8.16364
G1 X58.155 Y146.444 E8.67816
G1 X58.155 Y147.154 E8.71679
G1 X61.5 Y150.499 Z.28 E8.97405
G1 X64.845 Y153.844 Z.28 E9.23131
G1 X64.845 Y154.555 E9.26994
G1 X61.5 Y151.21 Z.28 E9.5272
G1 X58.155 Y147.864 Z.28 E9.78446
G1 X58.155 Y148.575 E9.82309
G1 X61.5 Y151.92 Z.28 E10.08035
G1 F900
G1 X64.845 Y155.265 Z.28 E10.33761
G1 F899.586
G1 X64.845 Y155.975 E10.37624
G1 X61.5 Y152.63 Z.28 E10.6335
G1 X58.155 Y149.285 Z.28 E10.89075
G1 X58.155 Y149.996 E10.92939
G1 X61.5 Y153.341 Z.28 E11.18665
G1 F900
G1 X64.845 Y156.686 Z.28 E11.4439
G1 F899.567
G1 X64.845 Y157.396 E11.48253
G1 X58.155 Y150.706 E11.99705
G1 X58.155 Y151.416 E12.03568
G1 X64.845 Y158.107 E12.5502
G1 X64.845 Y158.817 E12.58883
G1 X58.155 Y152.127 E13.10335
G1 X58.155 Y152.837 E13.14198
G1 X61.5 Y156.182 Z.28 E13.39924
G1 X64.845 Y159.527 Z.28 E13.6565
G1 X64.845 Y160.238 E13.69513
G1 X61.5 Y156.893 Z.28 E13.95239
G1 X58.155 Y153.547 Z.28 E14.20965
G1 X58.155 Y154.258 E14.24828
G1 X61.5 Y157.603 Z.28 E14.50554
G1 F900
G1 X64.845 Y160.948 Z.28 E14.76279
G1 F899.332
G1 X64.845 Y161.658 E14.80143
G1 X61.5 Y158.313 Z.28 E15.05869
G1 X58.155 Y154.968 Z.28 E15.31594
G1 X58.155 Y155.679 E15.35457
G1 X61.5 Y159.024 Z.28 E15.61183
G1 F900
G1 X64.845 Y162.369 Z.28 E15.86909
G1 F899.575
G1 X64.845 Y163.079 E15.90772
G1 X58.155 Y156.389 E16.42224
G1 X58.155 Y157.099 E16.46087
G1 X64.845 Y163.79 E16.97539
G1 X64.845 Y164.5 E17.01402
G1 X58.155 Y157.81 E17.52854
G1 X58.155 Y158.52 E17.56717
G1 X61.5 Y161.865 Z.28 E17.82442
G1 X64.845 Y165.21 Z.28 E18.08168
G1 X64.845 Y165.921 E18.12032
G1 X61.5 Y162.576 Z.28 E18.37757
G1 X58.155 Y159.23 Z.28 E18.63483
G1 X58.155 Y159.941 E18.67346
G1 X61.5 Y163.286 Z.28 E18.93072
G1 F900
G1 X64.845 Y166.631 Z.28 E19.18798
G1 F899.595
G1 X64.845 Y167.341 E19.22661
G1 X61.5 Y163.996 Z.28 E19.48387
G1 X58.155 Y160.651 Z.28 E19.74113
G1 X58.155 Y161.362 E19.77976
G1 X61.5 Y164.707 Z.28 E20.03702
G1 F900
G1 X64.845 Y168.052 Z.28 E20.29428
G1 F899.528
G1 X64.845 Y168.762 E20.33291
G1 X58.155 Y162.072 E20.84743
G1 X58.155 Y162.782 E20.88606
G1 X64.845 Y169.473 E21.40058
G1 X64.845 Y170.183 E21.43921
G1 X58.155 Y163.493 E21.95372
G1 X58.155 Y164.203 E21.99235
G1 X61.5 Y167.548 Z.28 E22.24961
G1 X64.845 Y170.893 Z.28 E22.50687
G1 X64.845 Y171.604 E22.5455
G1 X61.5 Y168.258 Z.28 E22.80276
G1 X58.155 Y164.913 Z.28 E23.06002
G1 X58.155 Y165.624 E23.09865
G1 X61.5 Y168.969 Z.28 E23.35591
G1 F900
G1 X64.845 Y172.314 Z.28 E23.61317
G1 F899.595
G1 X64.845 Y173.024 E23.6518
G1 X61.5 Y169.679 Z.28 E23.90906
G1 X58.155 Y166.334 Z.28 E24.16632
G1 X58.155 Y167.045 E24.20495
G1 X61.5 Y170.39 Z.28 E24.46221
G1 F900
G1 X64.845 Y173.735 Z.28 E24.71947
G1 F899.539
G1 X64.845 Y174.445 E24.7581
G1 X58.155 Y167.755 E25.27261
G1 X58.155 Y168.465 E25.31125
G1 X64.845 Y175.156 E25.82576
G1 X64.845 Y175.866 E25.86439
G1 X58.155 Y169.176 E26.37891
G1 X58.155 Y169.886 E26.41754
G1 X61.5 Y173.231 Z.28 E26.6748
G1 X64.845 Y176.576 Z.28 E26.93206
G1 X64.845 Y176.845 E26.94668
G1 F898.679
G1 X64.404 Y176.845 E26.97069
G1 F899.803
G1 X61.279 Y173.72 Z.28 E27.21097
G1 X58.155 Y170.596 Z.28 E27.45125
G1 X58.155 Y171.307 E27.48988
G1 X60.924 Y174.076 Z.28 E27.70284
G1 F900
G1 X63.693 Y176.845 Z.28 E27.91581
G1 F899.563
G1 X62.983 Y176.845 E27.95444
G1 X60.569 Y174.431 Z.28 E28.14008
G1 X58.155 Y172.017 Z.28 E28.32573
G1 X58.155 Y172.728 E28.36436
G1 X60.214 Y174.786 Z.28 E28.52269
G1 F900
G1 X62.272 Y176.845 Z.28 E28.68102
G1 F899.624
G1 X61.562 Y176.845 E28.71965
G1 X58.155 Y173.438 E28.98168
G1 X58.155 Y174.148 E29.02031
G1 X60.852 Y176.845 E29.22771
G1 X60.141 Y176.845 E29.26634
G1 X58.155 Y174.859 E29.41911
G1 X58.155 Y175.569 E29.45774
G1 X59.431 Y176.845 E29.55587
G1 X58.721 Y176.845 E29.5945
G1 F897.957
G1 X57.93 Y176.055 E29.6553
G1 E24.6553 F2400
G92 E0
G1 X177.07 Y58.941 F10800
G1 E5 F2400
;WIDTH:0.560167
G1 F900
G1 X176.284 Y58.155 E5.06018
G1 F899.959
G1 X175.577 Y58.155 E5.09846
G1 X176.845 Y59.423 E5.19556
G1 X176.845 Y60.13 E5.23385
G1 X174.87 Y58.155 E5.3851
G1 X174.162 Y58.155 E5.42339
G1 X176.845 Y60.838 E5.62878
G1 X176.845 Y61.545 E5.66707
G1 X173.455 Y58.155 E5.92662
G1 X172.748 Y58.155 E5.9649
G1 X176.845 Y62.252 E6.2786
G1 X176.845 Y62.959 E6.31689
G1 X172.041 Y58.155 E6.68472
G1 X171.334 Y58.155 E6.72301
G1 X174.09 Y60.91 Z.28 E6.934
G1 F898.956
G1 X176.845 Y63.666 Z.28 E7.145
G1 X176.845 Y64.374 E7.18329
G1 F899.32
G1 X173.736 Y61.264 Z.28 E7.42136
G1 F900
G1 X170.626 Y58.155 Z.28 E7.65942
G1 F899.671
G1 X169.919 Y58.155 E7.69771
G1 X176.609 Y64.845 E8.20994
G1 X175.902 Y64.845 E8.24823
G1 X169.212 Y58.155 E8.76046
G1 X168.505 Y58.155 E8.79875
G1 X175.195 Y64.845 E9.31098
G1 X174.488 Y64.845 E9.34927
G1 X167.797 Y58.155 E9.8615
G1 X167.09 Y58.155 E9.89979
G1 X173.78 Y64.845 E10.41202
G1 X173.073 Y64.845 E10.45031
G1 X166.383 Y58.155 E10.96254
G1 X165.676 Y58.155 E11.00083
G1 X172.366 Y64.845 E11.51306
G1 X171.659 Y64.845 E11.55135
G1 X168.314 Y61.5 Z.28 E11.80746
G1 X164.969 Y58.155 Z.28 E12.06358
G1 X164.261 Y58.155 E12.10187
G1 X167.607 Y61.5 Z.28 E12.35798
G1 X170.952 Y64.845 Z.28 E12.6141
G1 X170.244 Y64.845 E12.65239
G1 X166.899 Y61.5 Z.28 E12.9085
G1 F900
G1 X163.554 Y58.155 Z.28 E13.16462
G1 F899.706
G1 X162.847 Y58.155 E13.20291
G1 X169.537 Y64.845 E13.71514
G1 X168.83 Y64.845 E13.75343
G1 X162.14 Y58.155 E14.26566
G1 X161.433 Y58.155 E14.30395
G1 X164.778 Y61.5 Z.28 E14.56007
G1 X168.123 Y64.845 Z.28 E14.81618
G1 X167.415 Y64.845 E14.85447
G1 X164.07 Y61.5 Z.28 E15.11059
G1 F900
G1 X160.725 Y58.155 Z.28 E15.3667
G1 F899.707
G1 X160.018 Y58.155 E15.40499
G1 X166.708 Y64.845 E15.91722
G1 X166.001 Y64.845 E15.95551
G1 X159.311 Y58.155 E16.46774
G1 X158.604 Y58.155 E16.50603
G1 X165.294 Y64.845 E17.01826
G1 X164.587 Y64.845 E17.05655
G1 X157.896 Y58.155 E17.56878
G1 X157.189 Y58.155 E17.60707
G1 X163.879 Y64.845 E18.1193
G1 X163.172 Y64.845 E18.15759
G1 X156.482 Y58.155 E18.66982
G1 X155.775 Y58.155 E18.70811
G1 X162.465 Y64.845 E19.22034
G1 X161.758 Y64.845 E19.25863
G1 X158.413 Y61.5 Z.28 E19.51475
G1 F898.765
G1 X155.068 Y58.155 Z.28 E19.77086
G1 X154.36 Y58.155 E19.80914
G1 X157.706 Y61.5 Z.28 E20.06526
G1 X161.051 Y64.845 Z.28 E20.32138
G1 X160.343 Y64.845 E20.35966
G1 F899.058
G1 X156.998 Y61.5 Z.28 E20.61578
G1 F900
G1 X153.653 Y58.155 Z.28 E20.8719
G1 F899.995
G1 X152.946 Y58.155 E20.91018
G1 X159.636 Y64.845 E21.42242
G1 X158.929 Y64.845 E21.4607
G1 X155.584 Y61.5 Z.28 E21.71682
G1 X152.239 Y58.155 Z.28 E21.97293
G1 X151.531 Y58.155 E22.01122
G1 X154.876 Y61.5 Z.28 E22.26734
G1 X158.222 Y64.845 Z.28 E22.52345
G1 X157.514 Y64.845 E22.56174
G1 X154.169 Y61.5 Z.28 E22.81786
G1 F900
G1 X150.824 Y58.155 Z.28 E23.07397
G1 F899.706
G1 X150.117 Y58.155 E23.11226
G1 X156.807 Y64.845 E23.62449
G1 X156.1 Y64.845 E23.66278
G1 X149.41 Y58.155 E24.17501
G1 X148.703 Y58.155 E24.2133
G1 X155.393 Y64.845 E24.72553
G1 X154.686 Y64.845 E24.76382
G1 X147.995 Y58.155 E25.27605
G1 X147.288 Y58.155 E25.31434
G1 X153.978 Y64.845 E25.82657
G1 X153.271 Y64.845 E25.86486
G1 X146.581 Y58.155 E26.37709
G1 X145.874 Y58.155 E26.41538
G1 X152.564 Y64.845 E26.92761
G1 X151.857 Y64.845 E26.9659
G1 X145.166 Y58.155 E27.47813
G1 F896.876
G1 X144.955 Y58.155 E27.4896
G1 F899.544
G1 X144.751 Y58.446 E27.50886
G1 X151.149 Y64.845 E27.99878
G1 X150.442 Y64.845 E28.03707
G1 X144.459 Y58.862 E28.49515
G1 X144.168 Y59.278 E28.52264
G1 X149.735 Y64.845 E28.94887
G1 X149.028 Y64.845 E28.98716
G1 X143.877 Y59.694 E29.38154
G1 X143.586 Y60.11 E29.40903
G1 X145.953 Y62.478 Z.28 E29.5903
G1 F898.817
G1 X148.321 Y64.845 Z.28 E29.77157
G1 X147.613 Y64.845 E29.80985
G1 F899.111
G1 X145.454 Y62.686 Z.28 E29.97519
G1 F900
G1 X143.294 Y60.526 Z.28 E30.14054
G1 F899.849
G1 X143.003 Y60.942 E30.16803
G1 X146.906 Y64.845 E30.46687
G1 X146.199 Y64.845 E30.50516
G1 X142.712 Y61.358 E30.77215
G1 X142.421 Y61.774 E30.79964
G1 X145.492 Y64.845 E31.03478
G1 X144.784 Y64.845 E31.07307
G1 X142.129 Y62.19 E31.27637
G1 X141.838 Y62.606 E31.30386
G1 X144.077 Y64.845 E31.47531
G1 X143.37 Y64.845 E31.51359
G1 X141.523 Y62.998 E31.65499
G1 X141.437 Y63.076 E31.66126
G1 X141.241 Y63.146 E31.67252
G1 F897.01
G1 X140.973 Y63.155 E31.68708
G1 F899.99
G1 X142.663 Y64.845 E31.81649
G1 X141.956 Y64.845 E31.85477
G1 X140.265 Y63.155 E31.98418
G1 X139.558 Y63.155 E32.02247
G1 X141.248 Y64.845 E32.15188
G1 X140.541 Y64.845 E32.19017
G1 X138.851 Y63.155 E32.31957
G1 X138.144 Y63.155 E32.35786
G1 X139.834 Y64.845 E32.48727
G1 X139.127 Y64.845 E32.52556
G1 X137.437 Y63.155 E32.65497
G1 X136.729 Y63.155 E32.69325
G1 X138.42 Y64.845 E32.82266
G1 X137.712 Y64.845 E32.86095
G1 X136.022 Y63.155 E32.99036
G1 X135.315 Y63.155 E33.02865
G1 X137.005 Y64.845 E33.15805
G1 X136.298 Y64.845 E33.19634
G1 X134.383 Y62.93 E33.34297
G1 E28.34297 F2400
G92 E0
G1 X131.067 Y59.615 F10800
G1 E5 F2400
G1 F899.441
G1 X129.608 Y58.155 E5.11176
G1 X128.9 Y58.155 E5.15005
G1 X131.803 Y61.058 E5.37229
G1 X133.093 Y62.9 E5.49406
G1 X133.292 Y63.08 E5.50858
G1 X133.581 Y63.155 E5.52473
G1 F898.019
G1 X133.9 Y63.155 E5.54203
G1 F899.597
G1 X135.591 Y64.845 E5.67144
G1 X134.883 Y64.845 E5.70973
G1 X131.538 Y61.5 Z.28 E5.96585
G1 F900
G1 X128.193 Y58.155 Z.28 E6.22196
G1 F899.696
G1 X127.486 Y58.155 E6.26025
G1 X134.176 Y64.845 E6.77248
G1 X133.469 Y64.845 E6.81076
G1 X126.779 Y58.155 E7.323
G1 X126.072 Y58.155 E7.36128
G1 X132.762 Y64.845 E7.87352
G1 X132.055 Y64.845 E7.9118
G1 X125.364 Y58.155 E8.42403
